src/icons/IconDownload/IconDownload_size_xs.svg

<svg viewBox="0 0 12 12" xmlns="http://www.w3.org/2000/svg">
  <path d="M11 11V10H1V11H11Z" />
  <path
    d="M5.49895 1V7.29332L3.14126 4.92845L2.43416 5.63555L5.99895 9.20753L9.53906 5.66913L8.83196 4.96202L6.49895 7.29331V1L5.49895 1Z"
  />
</svg>

<svg viewBox="0 0 12 12" xmlns="http://www.w3.org/2000/svg">
  <path
    d="M11 11v-1H1v1h10zM5.499 1v6.293L3.14 4.928l-.707.708L6 9.208l3.54-3.539-.707-.707-2.333 2.331V1h-1z"
  />
</svg>
